X: 86
T:Iron And Coke Hornpipe,aka. WI.086
M:C|
Q:180
C:"by Wm. Irwin",untitled
S:Wm Irwin, Folio MS, c1850. AGG's Transcription
R:Hornipe
O:England
A:Lake District
N:If he wrote it why didn't he give it a nameCGP..
Z:vmp.Chris Partington.2005
K:E
B2|edef gagf|edec B2A2|GBeB agfe|d2B2B2cd|!
edef gagf|edec B2A2|GBeB cAFD|F2E2E2:|!
|:de|fBag fBdf|eBgf edcB|AFag fede|f2B2B2de|!
fBag fBdf|eBgf edcB|AFag fedf|e2E2E2:|]
